svg/part/baby_fill.svg

<?xml version="1.0" encoding="UTF-8"?>
<svg width="24px" height="24px" viewBox="0 0 24 24" version="1.1" xmlns="http://www.w3.org/2000/svg" xmlns:xlink="http://www.w3.org/1999/xlink">
    <title>baby_fill</title>
    <g id="Icon" stroke="none" stroke-width="1" fill="none" fill-rule="evenodd">
        <g id="Part" transform="translate(-240.000000, -240.000000)">
            <g id="baby_fill" transform="translate(240.000000, 240.000000)">
                <path d="M24,0 L24,24 L0,24 L0,0 L24,0 Z M12.5935,23.2578 L12.5819,23.2595 L12.5109,23.295 L12.4919,23.2987 L12.4767,23.295 L12.4057,23.2595 C12.3958,23.2564 12.387,23.259 12.3821,23.2649 L12.378,23.2758 L12.3609,23.7031 L12.3659,23.7235 L12.3769,23.7357 L12.4805,23.8097 L12.4953,23.8136 L12.5071,23.8097 L12.6107,23.7357 L12.6233,23.7197 L12.6267,23.7031 L12.6096,23.2758 C12.6076,23.2657 12.601,23.2593 12.5935,23.2578 Z M12.8584,23.1453 L12.8445,23.1473 L12.6598,23.2397 L12.6499,23.2499 L12.6472,23.2611 L12.6651,23.6906 L12.6699,23.7034 L12.6784,23.7105 L12.8793,23.8032 C12.8914,23.8069 12.9022,23.803 12.9078,23.7952 L12.9118,23.7812 L12.8777,23.1665 C12.8753,23.1546 12.8674,23.147 12.8584,23.1453 Z M12.143,23.1473 C12.1332,23.1424 12.1222,23.1453 12.1156,23.1526 L12.1099,23.1665 L12.0758,23.7812 C12.0751,23.7927 12.0828,23.8019 12.0926,23.8046 L12.1083,23.8032 L12.3092,23.7105 L12.3186,23.7024 L12.3225,23.6906 L12.3404,23.2611 L12.3372,23.2485 L12.3278,23.2397 L12.143,23.1473 Z" id="MingCute" fill-rule="nonzero"></path>
                <path d="M11.4095,2.01709 C12.1994,2.08636 12.6634,2.35688 12.9442,2.66891 C13.2875,3.05035 13.5,3.65232 13.5,4.49995 C13.5,5.32838 12.8284,5.99995 12,5.99995 C11.7175833,5.99995 11.4552361,5.92273472 11.2305509,5.7880206 L11.1004,5.70045 C10.6589,5.36871 10.032,5.45773 9.70026,5.89927 C9.36852,6.34082 9.45753,6.9677 9.89908,7.29944 C10.4842,7.73905 11.2131,7.99995 12,7.99995 C13.933,7.99995 15.5,6.43294 15.5,4.49995 C15.5,3.81471 15.3983,3.13101 15.1516,2.50669 C19.1302,3.82684 22,7.57825 22,11.9999 C22,17.5228 17.5228,21.9999 12,21.9999 C6.47715,21.9999 2,17.5228 2,11.9999 C2,6.67534 6.1615,2.32271 11.4095,2.01709 Z M14.6401,15.2317 C14.2158,14.8782 13.5852,14.9356 13.2317,15.3599 C12.8732,15.7902 12.4337,16 12,16 C11.5663,16 11.1268,15.7902 10.7683,15.3599 C10.4148,14.9356 9.78423,14.8782 9.35991,15.2317 C8.93559,15.5852 8.87819,16.2158 9.2317,16.6401 C9.90392,17.4469 10.8763,18 12,18 C13.1237,18 14.0961,17.4469 14.7683,16.6401 C15.1218,16.2158 15.0644,15.5852 14.6401,15.2317 Z M8.5,9.99994 C7.67157,9.99994 7,10.6715 7,11.4999 C7,12.3284 7.67157,12.9999 8.5,12.9999 C9.32843,12.9999 10,12.3284 10,11.4999 C10,10.6715 9.32843,9.99994 8.5,9.99994 Z M15.5,9.99994 C14.6716,9.99994 14,10.6715 14,11.4999 C14,12.3284 14.6716,12.9999 15.5,12.9999 C16.3284,12.9999 17,12.3284 17,11.4999 C17,10.6715 16.3284,9.99994 15.5,9.99994 Z" id="形状" fill="#09244B"></path>
            </g>
        </g>
    </g>
</svg>

<svg xmlns="http://www.w3.org/2000/svg" width="24" height="24"><g fill="none" fill-rule="evenodd"><path d="M24 0v24H0V0h24ZM12.594 23.258l-.012.002-.071.035-.02.004-.014-.004-.071-.036c-.01-.003-.019 0-.024.006l-.004.01-.017.428.005.02.01.013.104.074.015.004.012-.004.104-.074.012-.016.004-.017-.017-.427c-.002-.01-.009-.017-.016-.018Zm.264-.113-.014.002-.184.093-.01.01-.003.011.018.43.005.012.008.008.201.092c.012.004.023 0 .029-.008l.004-.014-.034-.614c-.003-.012-.01-.02-.02-.022Zm-.715.002a.023.023 0 0 0-.027.006l-.006.014-.034.614c0 .012.007.02.017.024l.015-.002.201-.093.01-.008.003-.011.018-.43-.003-.012-.01-.01-.184-.092Z"/><path fill="#09244B" d="M11.41 2.017c.79.07 1.253.34 1.534.652.343.381.556.983.556 1.831a1.5 1.5 0 0 1-2.27 1.288L11.1 5.7a1 1 0 1 0-1.2 1.6 3.5 3.5 0 0 0 5.6-2.8c0-.685-.102-1.369-.348-1.993C19.13 3.827 22 7.578 22 12c0 5.523-4.477 10-10 10S2 17.523 2 12c0-5.325 4.162-9.677 9.41-9.983Zm3.23 13.215a1 1 0 0 0-1.408.128c-.359.43-.798.64-1.232.64-.434 0-.873-.21-1.232-.64a1 1 0 0 0-1.536 1.28C9.904 17.447 10.876 18 12 18c1.124 0 2.096-.553 2.768-1.36a1 1 0 0 0-.128-1.408ZM8.5 10a1.5 1.5 0 1 0 0 3 1.5 1.5 0 0 0 0-3Zm7 0a1.5 1.5 0 1 0 0 3 1.5 1.5 0 0 0 0-3Z"/></g></svg>
